src/catppuccin-mocha-sapphire-cursors/left-arrow_24.svg

<?xml version="1.0" encoding="UTF-8" standalone="no"?>
<svg
   id="svg5327"
   width="24"
   height="24"
   version="1.1"
   sodipodi:docname="left-arrow_24.svg"
   inkscape:version="1.1.2 (0a00cf5339, 2022-02-04)"
   xmlns:inkscape="http://www.inkscape.org/namespaces/inkscape"
   xmlns:sodipodi="http://sodipodi.sourceforge.net/DTD/sodipodi-0.dtd"
   xmlns="http://www.w3.org/2000/svg"
   xmlns:svg="http://www.w3.org/2000/svg">
  <path
     style="color:#000000;opacity:0.1;fill:#000000;fill-opacity:1;stroke-linecap:round;stroke-linejoin:round;-inkscape-stroke:none;filter:url(#filter954)"
     d="m 20.499965,11.498204 a 1.0001,1.0001 0 0 0 -1,-1 H 11.740199 C 11.952741,9.535289 12.274848,8.668227 12.730434,8.1817957 A 1.0001,1.0001 0 0 0 11.486293,6.6407801 L 3.9862931,11.136876 a 1.0001,1.0001 0 0 0 -0.002,1.714844 l 7.4999999,4.503906 a 1.0001,1.0001 0 0 0 1.244188,-1.542969 c -0.455064,-0.483449 -0.776086,-1.350796 -0.988282,-2.314453 h 7.759766 a 1.0001,1.0001 0 0 0 1,-1 z M 9.8105121,9.9767176 c -0.145436,0.6574224 -0.311018,1.3100594 -0.310547,2.0175804 4.74e-4,0.707075 0.163741,1.3625 0.308594,2.021484 l -3.365235,-2.021484 z"
     id="path916" />
  <path
     style="color:#000000;fill:#1E1E2E;fill-opacity:1;stroke-linecap:round;stroke-linejoin:round;-inkscape-stroke:none"
     d="m 19.999966,10.998204 a 1.0001,1.0001 0 0 0 -1,-1 H 11.2402 C 11.452742,9.035291 11.774849,8.168229 12.230435,7.6817977 A 1.0001,1.0001 0 0 0 10.986294,6.1407821 l -7.5,4.4960939 a 1.0001,1.0001 0 0 0 -0.002,1.714844 l 7.5,4.503906 a 1.0001,1.0001 0 0 0 1.244188,-1.542969 C 11.773418,14.829208 11.452396,13.961861 11.2402,12.998204 h 7.759766 a 1.0001,1.0001 0 0 0 1,-1 z M 9.310513,9.4767196 C 9.165077,10.13414 8.999495,10.786777 8.999966,11.494298 c 4.74e-4,0.707075 0.163741,1.3625 0.308594,2.021484 L 5.943325,11.494298 Z"
     id="path1441" />
  <path
     id="path1184"
     style="fill:#74C7EC;fill-opacity:1;stroke:none;stroke-width:0;stroke-linecap:round;stroke-linejoin:round;stroke-miterlimit:4;stroke-dasharray:none;stroke-dashoffset:0;stroke-opacity:1;paint-order:normal"
     d="m 18.999966,10.998204 h -8 v 1 h 8 z m -7.5,-4 -7.5,4.496094 7.5,4.503906 c -0.939158,-0.997741 -1.498792,-2.70039 -1.5,-4.503906 -0.0012,-1.8035151 0.566028,-3.4988882 1.5,-4.496094 z" />
  <sodipodi:namedview
     id="namedview11"
     pagecolor="#ffffff"
     bordercolor="#666666"
     borderopacity="1.0"
     inkscape:pageshadow="2"
     inkscape:pageopacity="0.0"
     inkscape:pagecheckerboard="0"
     showgrid="true"
     inkscape:zoom="24.48"
     inkscape:cx="15.972222"
     inkscape:cy="12.745098"
     inkscape:window-width="1896"
     inkscape:window-height="1020"
     inkscape:window-x="9"
     inkscape:window-y="45"
     inkscape:window-maximized="1"
     inkscape:current-layer="svg5327">
    <inkscape:grid
       type="xygrid"
       id="grid1180" />
  </sodipodi:namedview>
  <defs
     id="defs5329">
    <filter
       id="filter862"
       style="color-interpolation-filters:sRGB"
       width="1.152"
       height="1.099"
       x="-0.079999998"
       y="-0.050000001">
      <feGaussianBlur
         id="feGaussianBlur864"
         stdDeviation=".413" />
    </filter>
    <filter
       id="filter822"
       style="color-interpolation-filters:sRGB"
       width="1.1827693"
       height="1.1187981"
       x="-0.091384627"
       y="-0.059399035">
      <feGaussianBlur
         id="feGaussianBlur824"
         stdDeviation=".495" />
    </filter>
    <filter
       inkscape:collect="always"
       style="color-interpolation-filters:sRGB"
       id="filter954"
       x="-0.018837151"
       y="-0.029109283"
       width="1.0376743"
       height="1.0582186">
      <feGaussianBlur
         inkscape:collect="always"
         stdDeviation="0.13342954"
         id="feGaussianBlur956" />
    </filter>
  </defs>
</svg>

<svg xmlns="http://www.w3.org/2000/svg" width="24" height="24">
    <path d="M20.5 11.498a1 1 0 0 0-1-1h-7.76c.213-.963.535-1.83.99-2.316a1 1 0 0 0-1.244-1.541l-7.5 4.496a1 1 0 0 0-.002 1.715l7.5 4.504a1 1 0 0 0 1.244-1.543c-.455-.484-.776-1.351-.988-2.315h7.76a1 1 0 0 0 1-1zM9.81 9.977c-.145.657-.31 1.31-.31 2.017s.164 1.363.309 2.022l-3.366-2.022z" style="color:#000;opacity:.1;fill:#000;fill-opacity:1;stroke-linecap:round;stroke-linejoin:round;-inkscape-stroke:none;filter:url(#a)"/>
    <path d="M20 10.998a1 1 0 0 0-1-1h-7.76c.213-.963.535-1.83.99-2.316a1 1 0 0 0-1.244-1.541l-7.5 4.496a1 1 0 0 0-.002 1.715l7.5 4.504a1 1 0 0 0 1.244-1.543c-.455-.484-.776-1.351-.988-2.315H19a1 1 0 0 0 1-1zM9.31 9.477c-.145.657-.31 1.31-.31 2.017s.164 1.363.309 2.022l-3.366-2.022Z" style="color:#000;fill:#1e1e2e;fill-opacity:1;stroke-linecap:round;stroke-linejoin:round;-inkscape-stroke:none"/>
    <path d="M19 10.998h-8v1h8zm-7.5-4L4 11.494l7.5 4.504c-.94-.998-1.499-2.7-1.5-4.504s.566-3.499 1.5-4.496" style="fill:#74c7ec;fill-opacity:1;stroke:none;stroke-width:0;stroke-linecap:round;stroke-linejoin:round;stroke-miterlimit:4;stroke-dasharray:none;stroke-dashoffset:0;stroke-opacity:1;paint-order:normal"/>
    <defs>
        <filter id="a" width="1.038" height="1.058" x="-.019" y="-.029" style="color-interpolation-filters:sRGB">
            <feGaussianBlur stdDeviation=".133"/>
        </filter>
    </defs>
</svg>
